X: 5727
T: Cage, The
R: hornpipe
M: 4/4
K: Amajor
AB|cBdc BAcB|A2E2 E2FG|AGBA cBdc|BABc B2AB|
cBdc BAcB|A2E2 E2FG|AGBA FdBG|B2A2 A2:|
|:eg|aAce agba|gfag fagf|eEGB e^dfe|=dced c2ed|
cBdc BAcB|AGBA GFED|CEAd cBAG|B2A2 A2:|
AB|cBdc BAcB|A2E2 E2FG|AGBA cBdc|BcGA B2AB|
cBdc BAcB|A2E2 E2FG|AGBA FdBG|B2A2 A2:|
|:eg|aAce agba|gfgf e2gf|eEGB e^dfe|=dced c2AB|
cBdc BAcB|AGBA GFED|CEAE FdBG|B2A2 A2:|
AB|cBdc BAcB|A2E2 E2FG|AGBA cBdB|BABc B2AB|
cBdc BAcB|A2E2 E2FG|AGBA FdBG|B2A2 A2:|
|:(3efg|aAce agba|gfag f2e^d|eEGB e^dfe|=dced c2AB|
cBdc BAcB|AGBA GFED|CEAd cBAG|B2A2 A2:|

